!!!OTL: Der grausame Bruder Es reist ein Knab wohl ueber den Rhein,
!!!ARE: Europa, Mitteleuropa, Deutschland / France, Lothringen, Hambach
!!!YOR: 3, S 258
!!    1918 aufgezeichnet
!!!SCT: Q0068K
!!!YEM: Copyright 1995, estate of Helmut Schaffrath.
**kern
*ICvox
*Ivox
*M3/8
*k[f#]
*G:
{16g
16b
=1
4dd
16b
16g
=2
4b
16b
16dd
=3
8b
8g
8d
=4
8.e}
{16d
16f#
16a
=5
4g
16b
16dd
=6
4dd
8a
=7
4g}
{16g
16b
=8
4dd
16b
16g
=9
4b
16b
16ee
=10
4dd
16b
16g
=11
8a
16r}
{16d
16f#
16a
=12
4g
8a
=13
16g
16g
8g
8b
=14
4dd
8f#
=15
4g}
==
!!!AGN: Ballade, Schwangerschaft, Moral, Mord
!! Letzten Notenwert der dritten Zeile rhythmisch korrigiert.
!!!ONB: ESAC (Essen Associative Code) Database: BALLADE
!!!AMT: simple triple
!!!AIN: vox
!!!EED: Helmut Schaffrath
!!!EEV: 1.0
*-
